Yaru++/mimetypes/48/application-img.svg

<svg id="svg41" height="48" viewBox="0 0 12.699375 12.699376" width="48" xmlns="http://www.w3.org/2000/svg" xmlns:xlink="http://www.w3.org/1999/xlink">
  <linearGradient id="a" gradientUnits="userSpaceOnUse" x1="344" x2="344" y1="62" y2="106">
    <stop id="stop2" offset="0" stop-color="#fff"/>
    <stop id="stop4" offset=".125" stop-color="#fff" stop-opacity=".098039"/>
    <stop id="stop6" offset=".92500001" stop-color="#fff" stop-opacity=".098039"/>
    <stop id="stop8" offset="1" stop-color="#fff" stop-opacity=".498039"/>
  </linearGradient>
  <clipPath id="b">
    <path id="path11" d="m335.73108 62c-8.82418 0-9.77365.90635-9.7304 9.74838v12.25162 12.25162c-.0433 8.84203.90622 9.74838 9.7304 9.74838h16.53919c8.82418 0 9.7304-.90625 9.7304-9.74838v-12.25162-12.25162c0-8.84213-.90622-9.74838-9.7304-9.74838z"/>
  </clipPath>
  <linearGradient id="c" gradientTransform="matrix(0 -.02997086 .02997 0 -3.039509 13.625372)" gradientUnits="userSpaceOnUse" x1="459.03448" x2="35.310345" y1="419.23337" y2="207.36522">
    <stop id="stop20" offset="0" stop-color="#f2f2f2"/>
    <stop id="stop22" offset="1" stop-color="#f9f9f9"/>
  </linearGradient>
  <path id="path25" d="m4.1621982.39685701c-.5881821 0-1.0513178.0135407-1.4323996.0775109-.3810844.06396888-.6929228.18395549-.9213476.41184075-.228422.22788554-.3489841.53958354-.4123566.92082884-.0633726.3812456-.0757439.8453924-.07286 1.4349839v3.239953 3.2415032c-.00286.5886864.00955 1.0525964.07286 1.4334324.063372.381246.1839346.692944.4123566.920829.2284248.227885.5402632.347873.9213476.411841.3810845.06397.8442175.07751 1.4323996.07751h4.375745c.588182 0 1.051074-.01352 1.431367-.07751.3802938-.064.6911798-.18439.9187598-.412357.227584-.227967.347434-.539443.411325-.920313.06389-.380867.07751-.844072.07751-1.4334324v-3.2415032-3.2415031c0-.5893606-.01362-1.0525645-.07751-1.4334338-.063891-.3808691-.183741-.6923443-.411325-.92031213-.22758-.22796755-.538466-.3483608-.9187598-.41235745-.380293-.06399692-.843185-.07751091-1.431367-.07751091z" opacity=".1"/>
  <path id="path27" d="m4.1623596.39685701c-2.3346161 0-2.5858177.23979332-2.574375 2.57913209v3.241415 3.2414151c-.011456 2.3393378.2397589 2.5791318 2.574375 2.5791318h4.3757786c2.3346158 0 2.5743748-.239767 2.5743748-2.5791318v-3.2414151-3.241415c0-2.33936523-.239759-2.57913209-2.5743748-2.57913209z" fill="none" opacity=".2" stroke="#000" stroke-width=".529141"/>
  <path id="path29" d="m4.1623596.39685701c-2.3346161 0-2.5858177.23979332-2.574375 2.57913209v3.241415 3.2414151c-.011456 2.3393378.2397589 2.5791318 2.574375 2.5791318h4.3757786c2.3346158 0 2.5743748-.239767 2.5743748-2.5791318v-3.2414151-3.241415c0-2.33936523-.239759-2.57913209-2.5743748-2.57913209z" fill="url(#c)"/>
  <g id="g39" fill="none">
    <path id="circle31" d="m23.962891 11.587891c-6.570268 0-11.914063 5.339933-11.914063 11.910156 0 6.570222 5.343795 11.914062 11.914063 11.914062 6.570267 0 11.912109-5.34384 11.912109-11.914062 0-6.570223-5.341842-11.910156-11.912109-11.910156zm0 1.488281c5.765518 0 10.423828 4.656303 10.423828 10.421875s-4.65831 10.425781-10.423828 10.425781c-5.765519 0-10.423829-4.660209-10.423829-10.425781s4.65831-10.421875 10.423829-10.421875zm0 6.701172c-2.047037 0-3.722657 1.67375-3.722657 3.720703s1.67562 3.724609 3.722657 3.724609 3.720703-1.677656 3.720703-3.724609-1.673666-3.720703-3.720703-3.720703zm0 1.488281c1.242314 0 2.232421.990159 2.232421 2.232422s-.990107 2.236328-2.232421 2.236328c-1.242315 0-2.234375-.994065-2.234375-2.236328s.99206-2.232422 2.234375-2.232422z" fill="#1a7fd4" transform="matrix(.26457032341 0 0 .26457032428 -.00000040903 .00000011291)"/>
    <path id="path37" clip-path="url(#b)" d="m335.73108 62c-8.82418 0-9.77365.90635-9.7304 9.74838v12.25162 12.25162c-.0433 8.84203.90622 9.74838 9.7304 9.74838h16.53919c8.82418 0 9.7304-.90625 9.7304-9.74838v-12.25162-12.25162c0-8.84213-.90622-9.74838-9.7304-9.74838z" opacity=".4" stroke="url(#a)" stroke-width="2" transform="matrix(.26457032 0 0 .26457032 -84.66212 -16.006504)"/>
  </g>
</svg>

<?xml version="1.0" encoding="UTF-8" standalone="no"?>
<svg
   xmlns:dc="http://purl.org/dc/elements/1.1/"
   xmlns:cc="http://creativecommons.org/ns#"
   xmlns:rdf="http://www.w3.org/1999/02/22-rdf-syntax-ns#"
   xmlns:svg="http://www.w3.org/2000/svg"
   xmlns="http://www.w3.org/2000/svg"
   xmlns:sodipodi="http://sodipodi.sourceforge.net/DTD/sodipodi-0.dtd"
   xmlns:inkscape="http://www.inkscape.org/namespaces/inkscape"
   height="48"
   viewBox="0 0 12.699375 12.699376"
   width="48"
   version="1.1"
   id="svg41"
   sodipodi:docname="application-x-img.svg"
   inkscape:version="0.92.5 (2060ec1f9f, 2020-04-08)">
  <metadata
     id="metadata47">
    <rdf:RDF>
      <cc:Work
         rdf:about="">
        <dc:format>image/svg+xml</dc:format>
        <dc:type
           rdf:resource="http://purl.org/dc/dcmitype/StillImage" />
      </cc:Work>
    </rdf:RDF>
  </metadata>
  <defs
     id="defs45" />
  <sodipodi:namedview
     pagecolor="#ffffff"
     bordercolor="#666666"
     borderopacity="1"
     objecttolerance="10"
     gridtolerance="10"
     guidetolerance="10"
     inkscape:pageopacity="0"
     inkscape:pageshadow="2"
     inkscape:window-width="1920"
     inkscape:window-height="1016"
     id="namedview43"
     showgrid="false"
     inkscape:zoom="17.893619"
     inkscape:cx="40.815462"
     inkscape:cy="23.999998"
     inkscape:window-x="0"
     inkscape:window-y="27"
     inkscape:window-maximized="1"
     inkscape:current-layer="svg41" />
  <linearGradient
     id="a"
     gradientUnits="userSpaceOnUse"
     x1="344"
     x2="344"
     y1="62"
     y2="106">
    <stop
       offset="0"
       stop-color="#fff"
       id="stop2" />
    <stop
       offset=".125"
       stop-color="#fff"
       stop-opacity=".098039"
       id="stop4" />
    <stop
       offset=".92500001"
       stop-color="#fff"
       stop-opacity=".098039"
       id="stop6" />
    <stop
       offset="1"
       stop-color="#fff"
       stop-opacity=".498039"
       id="stop8" />
  </linearGradient>
  <clipPath
     id="b">
    <path
       d="m335.73108 62c-8.82418 0-9.77365.90635-9.7304 9.74838v12.25162 12.25162c-.0433 8.84203.90622 9.74838 9.7304 9.74838h16.53919c8.82418 0 9.7304-.90625 9.7304-9.74838v-12.25162-12.25162c0-8.84213-.90622-9.74838-9.7304-9.74838z"
       id="path11" />
  </clipPath>
  <linearGradient
     gradientUnits="userSpaceOnUse"
     x1="334.86633"
     x2="334.86633"
     y1="140.23035"
     y2="160.63107"
     id="linearGradient18">
    <stop
       offset="0"
       stop-color="#808080"
       id="stop14" />
    <stop
       offset="1"
       stop-color="#999"
       id="stop16" />
  </linearGradient>
  <linearGradient
     id="c"
     gradientTransform="matrix(0 -.02997086 .02997 0 -3.039509 13.625372)"
     gradientUnits="userSpaceOnUse"
     x1="459.03448"
     x2="35.310345"
     y1="419.23337"
     y2="207.36522">
    <stop
       offset="0"
       stop-color="#f2f2f2"
       id="stop20" />
    <stop
       offset="1"
       stop-color="#f9f9f9"
       id="stop22" />
  </linearGradient>
  <path
     d="m4.1621982.39685701c-.5881821 0-1.0513178.0135407-1.4323996.0775109-.3810844.06396888-.6929228.18395549-.9213476.41184075-.228422.22788554-.3489841.53958354-.4123566.92082884-.0633726.3812456-.0757439.8453924-.07286 1.4349839v3.239953 3.2415032c-.00286.5886864.00955 1.0525964.07286 1.4334324.063372.381246.1839346.692944.4123566.920829.2284248.227885.5402632.347873.9213476.411841.3810845.06397.8442175.07751 1.4323996.07751h4.375745c.588182 0 1.051074-.01352 1.431367-.07751.3802938-.064.6911798-.18439.9187598-.412357.227584-.227967.347434-.539443.411325-.920313.06389-.380867.07751-.844072.07751-1.4334324v-3.2415032-3.2415031c0-.5893606-.01362-1.0525645-.07751-1.4334338-.063891-.3808691-.183741-.6923443-.411325-.92031213-.22758-.22796755-.538466-.3483608-.9187598-.41235745-.380293-.06399692-.843185-.07751091-1.431367-.07751091z"
     opacity=".1"
     id="path25" />
  <path
     d="m4.1623596.39685701c-2.3346161 0-2.5858177.23979332-2.574375 2.57913209v3.241415 3.2414151c-.011456 2.3393378.2397589 2.5791318 2.574375 2.5791318h4.3757786c2.3346158 0 2.5743748-.239767 2.5743748-2.5791318v-3.2414151-3.241415c0-2.33936523-.239759-2.57913209-2.5743748-2.57913209z"
     fill="none"
     opacity=".2"
     stroke="#000"
     stroke-width=".529141"
     id="path27" />
  <path
     d="m4.1623596.39685701c-2.3346161 0-2.5858177.23979332-2.574375 2.57913209v3.241415 3.2414151c-.011456 2.3393378.2397589 2.5791318 2.574375 2.5791318h4.3757786c2.3346158 0 2.5743748-.239767 2.5743748-2.5791318v-3.2414151-3.241415c0-2.33936523-.239759-2.57913209-2.5743748-2.57913209z"
     fill="url(#c)"
     id="path29" />
  <g
     fill="none"
     id="g39">
    <g
       enable-background="new"
       stroke="#8f8f8f"
       stroke-linecap="square"
       stroke-linejoin="round"
       stroke-width="1.133351"
       transform="matrix(.34759561 0 0 .3475814 -110.45219 -45.87258)"
       id="g35">
      <path
         style="color:#000000;font-style:normal;font-variant:normal;font-weight:normal;font-stretch:normal;font-size:medium;line-height:normal;font-family:sans-serif;font-variant-ligatures:normal;font-variant-position:normal;font-variant-caps:normal;font-variant-numeric:normal;font-variant-alternates:normal;font-feature-settings:normal;text-indent:0;text-align:start;text-decoration:none;text-decoration-line:none;text-decoration-style:solid;text-decoration-color:#000000;letter-spacing:normal;word-spacing:normal;text-transform:none;writing-mode:lr-tb;direction:ltr;text-orientation:mixed;dominant-baseline:auto;baseline-shift:baseline;text-anchor:start;white-space:normal;shape-padding:0;clip-rule:nonzero;display:inline;overflow:visible;visibility:visible;opacity:1;isolation:auto;mix-blend-mode:normal;color-interpolation:sRGB;color-interpolation-filters:linearRGB;solid-color:#000000;solid-opacity:1;vector-effect:none;fill:#1a7fd4;fill-opacity:1;fill-rule:nonzero;stroke:none;stroke-width:1.48897946;stroke-linecap:butt;stroke-linejoin:miter;stroke-miterlimit:4;stroke-dasharray:none;stroke-dashoffset:0;stroke-opacity:1;color-rendering:auto;image-rendering:auto;shape-rendering:auto;text-rendering:auto;enable-background:accumulate"
         d="M 23.962891 11.587891 C 17.392623 11.587891 12.048828 16.927824 12.048828 23.498047 C 12.048828 30.068269 17.392623 35.412109 23.962891 35.412109 C 30.533158 35.412109 35.875 30.068269 35.875 23.498047 C 35.875 16.927824 30.533158 11.587891 23.962891 11.587891 z M 23.962891 13.076172 C 29.728409 13.076172 34.386719 17.732475 34.386719 23.498047 C 34.386719 29.263619 29.728409 33.923828 23.962891 33.923828 C 18.197372 33.923828 13.539062 29.263619 13.539062 23.498047 C 13.539062 17.732475 18.197372 13.076172 23.962891 13.076172 z M 23.962891 19.777344 C 21.915854 19.777344 20.240234 21.451094 20.240234 23.498047 C 20.240234 25.545 21.915854 27.222656 23.962891 27.222656 C 26.009928 27.222656 27.683594 25.545 27.683594 23.498047 C 27.683594 21.451094 26.009928 19.777344 23.962891 19.777344 z M 23.962891 21.265625 C 25.205205 21.265625 26.195312 22.255784 26.195312 23.498047 C 26.195312 24.74031 25.205205 25.734375 23.962891 25.734375 C 22.720576 25.734375 21.728516 24.74031 21.728516 23.498047 C 21.728516 22.255784 22.720576 21.265625 23.962891 21.265625 z "
         transform="matrix(0.76114403,0,0,0.76117515,317.7606,131.97651)"
         id="circle31" />
    </g>
    <path
       clip-path="url(#b)"
       d="m335.73108 62c-8.82418 0-9.77365.90635-9.7304 9.74838v12.25162 12.25162c-.0433 8.84203.90622 9.74838 9.7304 9.74838h16.53919c8.82418 0 9.7304-.90625 9.7304-9.74838v-12.25162-12.25162c0-8.84213-.90622-9.74838-9.7304-9.74838z"
       opacity=".4"
       stroke="url(#a)"
       stroke-width="2"
       transform="matrix(.26457032 0 0 .26457032 -84.66212 -16.006504)"
       id="path37" />
  </g>
</svg>
